maps/states/MA.svg

<?xml version="1.0" standalone="yes"?>
<svg xmlns="http://www.w3.org/2000/svg" version="1.2" id="root" viewBox="815.3333446816546 176.343020725492 51.41318904237096 27.630571817300506"><g id="counties"><path id="county-25009" class="county feature" d="M847.3291595067001,176.343020725492L848.734506222808,179.11080177303984L851.458781241858,179.71697786949608L850.8894342881704,180.83127404637173L848.0513621916518,182.65941374585134L848.3351024660183,184.0844839902461L847.3029451819406,184.91843260286055L846.692862863549,184.8265107614959L845.4865806503595,182.0408536254629L842.6315499977709,181.7994828770312L842.2318156594837,180.35602453780984L842.3372439080031,180.20051904534625L844.4048049040045,178.40954493630147L844.5907559159639,177.3314765174988Z" style="fill: inherit; stroke: inherit; stroke-width: inherit;" vector-effect="non-scaling-stroke"><title>Essex County</title></path><path id="county-25003" class="county feature" d="M818.8725903088759,186.24774907938001L820.2806844160177,187.8439847241891L820.3347789884109,189.47244190823903L821.1031030823403,193.99799753047193L821.6208991622028,199.14870586913503L815.7715708903064,200.38561543899334L815.6464165458106,200.41478172699283L815.3333446816546,199.77016275313485L815.5346643235753,191.53712796635568L815.6480893663787,186.94600403447646Z" style="fill: inherit; stroke: inherit; stroke-width: inherit;" vector-effect="non-scaling-stroke"><title>Berkshire County</title></path><path id="county-25011" class="county feature" d="M830.080637017634,191.14286126065338L828.9192927490724,189.9481987475441L824.6204749949733,191.31981635090608L824.447038666729,190.444199520427L822.045433608364,190.43716984040418L820.3347789884109,189.47244190823903L820.2806844160177,187.8439847241891L818.8725903088759,186.24774907938001L820.1114576611533,185.9780149864314L826.4058202313613,184.64108929202564L828.7507541111852,184.15094505601598L829.7254592084139,185.03965536288308L830.2156904135409,187.8117307352777Z" style="fill: inherit; stroke: inherit; stroke-width: inherit;" vector-effect="non-scaling-stroke"><title>Franklin County</title></path><path id="county-25017" class="county feature" d="M846.692862863549,184.8265107614959L846.6142827668623,185.85971105931492L846.3070433599542,185.9861385132058L846.5440127832662,186.33757647000255L846.5355574958071,186.34402923230402L845.5084820681159,187.378288347457L845.5319555636249,187.88526546084267L845.28180683647,188.36083940992353L843.3058832112215,188.3091865896322L843.6548963989728,190.39201893748964L842.0871341246851,191.660525859151L840.5013820430779,191.3343964903662L840.1410191143643,190.17598629906968L841.1426130861436,188.54435268714826L839.201218903766,188.67071980927392L839.7831146647349,187.30377505788226L839.4278918672785,184.85314203649648L837.6367177787984,185.56844339009172L837.4348580558203,184.04150651657642L834.7691094638374,184.30879792196822L833.870894384906,183.03094040631174L841.9143811641782,181.19975701552528L842.2318156594837,180.35602453780984L842.6315499977709,181.7994828770312L845.4865806503595,182.0408536254629Z" style="fill: inherit; stroke: inherit; stroke-width: inherit;" vector-effect="non-scaling-stroke"><title>Middlesex County</title></path><path id="county-25027" class="county feature" d="M833.4690157193055,183.11938550933473L833.870894384906,183.03094040631174L834.7691094638374,184.30879792196822L837.4348580558203,184.04150651657642L837.6367177787984,185.56844339009172L839.4278918672785,184.85314203649648L839.7831146647349,187.30377505788226L839.201218903766,188.67071980927392L841.1426130861436,188.54435268714826L840.1410191143643,190.17598629906968L840.5013820430779,191.3343964903662L842.0871341246851,191.660525859151L842.4887640215095,194.26770800576276L838.5140136694833,195.48651675571512L834.3759761209913,196.15372759983427L833.9241016460314,196.24260092247857L833.3190105926308,193.8438663347098L831.4996824490587,193.8786506091119L831.7833889874521,192.61790955668948L831.6053991599574,191.38443459708333L830.080637017634,191.14286126065338L830.2156904135409,187.8117307352777L829.7254592084139,185.03965536288308L828.7507541111852,184.15094505601598Z" style="fill: inherit; stroke: inherit; stroke-width: inherit;" vector-effect="non-scaling-stroke"><title>Worcester County</title></path><path id="county-25015" class="county feature" d="M830.080637017634,191.14286126065338L831.6053991599574,191.38443459708333L831.7833889874521,192.61790955668948L829.7367139490414,194.29158776488464L829.409023107988,193.4806810952383L827.0016443302014,194.47902618947592L826.1521987449635,193.48445456752893L825.8285009385619,195.3158206404795L822.6045137725198,195.0415037637922L822.5456826206041,193.24881339151977L821.1031030823403,193.99799753047193L820.3347789884109,189.47244190823903L822.045433608364,190.43716984040418L824.447038666729,190.444199520427L824.6204749949733,191.31981635090608L828.9192927490724,189.9481987475441Z" style="fill: inherit; stroke: inherit; stroke-width: inherit;" vector-effect="non-scaling-stroke"><title>Hampshire County</title></path><path id="county-25025" class="county feature" d="M846.5355574958071,186.34402923230402L847.2870367501841,187.8318610819041L846.3477336641674,189.14207605908757L845.28180683647,188.36083940992353L845.5319555636249,187.88526546084267L845.5084820681159,187.378288347457ZM846.5440127832662,186.33757647000255L846.3070433599542,185.9861385132058L846.5440127832662,186.33757647000255ZM847.3029451819406,184.91843260286055L846.6142827668623,185.85971105931492L846.692862863549,184.8265107614959Z" style="fill: inherit; stroke: inherit; stroke-width: inherit;" vector-effect="non-scaling-stroke"><title>Suffolk County</title></path><path id="county-25021" class="county feature" d="M850.213110942442,187.38588372460083L850.8828048192177,187.67080723586196L850.213110942442,187.38588372460083ZM845.28180683647,188.36083940992353L846.3477336641674,189.14207605908757L847.2870367501841,187.8318610819041L848.9033098114195,188.07308757511305L849.4303896549135,189.6841407881119L847.6684594939047,191.3625782680748L844.1977161644843,194.44297959192363L842.4887640215095,194.26770800576276L842.0871341246851,191.660525859151L843.6548963989728,190.39201893748964L843.3058832112215,188.3091865896322ZM845.5319555636249,187.88526546084267L845.5084820681159,187.378288347457L845.5319555636249,187.88526546084267Z" style="fill: inherit; stroke: inherit; stroke-width: inherit;" vector-effect="non-scaling-stroke"><title>Norfolk County</title></path><path id="county-25013" class="county feature" d="M831.7833889874521,192.61790955668948L831.4996824490587,193.8786506091119L833.3190105926308,193.8438663347098L833.9241016460314,196.24260092247857L828.9181582932212,197.4390131148475L822.2249516584172,199.01750358366792L821.6208991622028,199.14870586913503L821.1031030823403,193.99799753047193L822.5456826206041,193.24881339151977L822.6045137725198,195.0415037637922L825.8285009385619,195.3158206404795L826.1521987449635,193.48445456752893L827.0016443302014,194.47902618947592L829.409023107988,193.4806810952383L829.7367139490414,194.29158776488464Z" style="fill: inherit; stroke: inherit; stroke-width: inherit;" vector-effect="non-scaling-stroke"><title>Hampden County</title></path><path id="county-25023" class="county feature" d="M850.213110942442,187.38588372460083L850.8828048192177,187.67080723586196L853.5569463574582,189.9204279971068L853.021393893935,191.63736537265936L855.6924103414401,192.49366990856174L856.2918938864788,194.58405891022278L855.4894180989412,196.04878173456075L854.2030158301783,196.61470472296003L854.1431688922262,198.22942216731167L853.106894561004,198.98525211569654L851.2668879491443,196.3306038996078L849.9300013827035,196.91810971736902L850.2299617701635,195.2476762401036L848.6974444545123,193.63125319581343L847.6684594939047,191.3625782680748L849.4303896549135,189.6841407881119L848.9033098114195,188.07308757511305Z" style="fill: inherit; stroke: inherit; stroke-width: inherit;" vector-effect="non-scaling-stroke"><title>Plymouth County</title></path><path id="county-25005" class="county feature" d="M853.106894561004,198.98525211569654L852.4156251861508,200.92628699760053L850.0568687562238,202.37629490872894L849.0903374107634,199.46022616523874L848.1733141921267,199.41670135350114L847.5712189299436,198.8367852992651L846.0528672420523,198.01528345862096L844.1977161644843,194.44297959192363L847.6684594939047,191.3625782680748L848.6974444545123,193.63125319581343L850.2299617701635,195.2476762401036L849.9300013827035,196.91810971736902L851.2668879491443,196.3306038996078Z" style="fill: inherit; stroke: inherit; stroke-width: inherit;" vector-effect="non-scaling-stroke"><title>Bristol County</title></path><path id="county-25001" class="county feature" d="M859.1078910785048,197.4598884190567L858.1744921493761,199.11052760824384L855.8722536222674,200.16579617202206L855.4894180989412,196.04878173456075L856.2918938864788,194.58405891022278L858.1460388404057,195.31907031262108L860.1980111187952,195.13940417822073L863.4395061771015,192.64964537082585L860.5694982276326,188.65909261280444L863.0616251513393,190.2033179434767L864.457977432246,193.21168778708818L863.9370377431112,195.21393987365377Z" style="fill: inherit; stroke: inherit; stroke-width: inherit;" vector-effect="non-scaling-stroke"><title>Barnstable County</title></path><path id="county-25007" class="county feature" d="M857.2661629683953,201.297021599765L859.5747476050146,202.69610304621676L855.9230382560924,203.97359254279252L855.9775513315459,202.02850643377155Z" style="fill: inherit; stroke: inherit; stroke-width: inherit;" vector-effect="non-scaling-stroke"><title>Dukes County</title></path><path id="county-25019" class="county feature" d="M865.6597828558466,200.93261367821515L866.7465337240255,202.56731373229456L864.7593443358783,203.33189224359785Z" style="fill: inherit; stroke: inherit; stroke-width: inherit;" vector-effect="non-scaling-stroke"><title>Nantucket County</title></path></g><path id="counties-mesh" class="counties mesh" d="M818.8725903088759,186.24774907938001L820.2806844160177,187.8439847241891L820.3347789884109,189.47244190823903L821.1031030823403,193.99799753047193L821.6208991622028,199.14870586913503L815.7715708903064,200.38561543899334L815.6464165458106,200.41478172699283L815.3333446816546,199.77016275313485L815.5346643235753,191.53712796635568L815.6480893663787,186.94600403447646L818.8725903088759,186.24774907938001L820.1114576611533,185.9780149864314L826.4058202313613,184.64108929202564L828.7507541111852,184.15094505601598L833.4690157193055,183.11938550933473L833.870894384906,183.03094040631174L841.9143811641782,181.19975701552528L842.2318156594837,180.35602453780984L842.3372439080031,180.20051904534625L844.4048049040045,178.40954493630147L844.5907559159639,177.3314765174988L847.3291595067001,176.343020725492L848.734506222808,179.11080177303984L851.458781241858,179.71697786949608L850.8894342881704,180.83127404637173L848.0513621916518,182.65941374585134L848.3351024660183,184.0844839902461L847.3029451819406,184.91843260286055L846.692862863549,184.8265107614959L845.4865806503595,182.0408536254629L842.6315499977709,181.7994828770312L842.2318156594837,180.35602453780984M828.7507541111852,184.15094505601598L829.7254592084139,185.03965536288308L830.2156904135409,187.8117307352777L830.080637017634,191.14286126065338L828.9192927490724,189.9481987475441L824.6204749949733,191.31981635090608L824.447038666729,190.444199520427L822.045433608364,190.43716984040418L820.3347789884109,189.47244190823903M846.692862863549,184.8265107614959L846.6142827668623,185.85971105931492L846.3070433599542,185.9861385132058L846.5440127832662,186.33757647000255L846.5355574958071,186.34402923230402L845.5084820681159,187.378288347457L845.5319555636249,187.88526546084267L845.28180683647,188.36083940992353L843.3058832112215,188.3091865896322L843.6548963989728,190.39201893748964L842.0871341246851,191.660525859151L840.5013820430779,191.3343964903662L840.1410191143643,190.17598629906968L841.1426130861436,188.54435268714826L839.201218903766,188.67071980927392L839.7831146647349,187.30377505788226L839.4278918672785,184.85314203649648L837.6367177787984,185.56844339009172L837.4348580558203,184.04150651657642L834.7691094638374,184.30879792196822L833.870894384906,183.03094040631174M842.0871341246851,191.660525859151L842.4887640215095,194.26770800576276L838.5140136694833,195.48651675571512L834.3759761209913,196.15372759983427L833.9241016460314,196.24260092247857L833.3190105926308,193.8438663347098L831.4996824490587,193.8786506091119L831.7833889874521,192.61790955668948L831.6053991599574,191.38443459708333L830.080637017634,191.14286126065338M831.7833889874521,192.61790955668948L829.7367139490414,194.29158776488464L829.409023107988,193.4806810952383L827.0016443302014,194.47902618947592L826.1521987449635,193.48445456752893L825.8285009385619,195.3158206404795L822.6045137725198,195.0415037637922L822.5456826206041,193.24881339151977L821.1031030823403,193.99799753047193M846.5355574958071,186.34402923230402L847.2870367501841,187.8318610819041L846.3477336641674,189.14207605908757L845.28180683647,188.36083940992353M845.5319555636249,187.88526546084267L845.5084820681159,187.378288347457M846.3070433599542,185.9861385132058L846.5440127832662,186.33757647000255M847.3029451819406,184.91843260286055L846.6142827668623,185.85971105931492M848.9033098114195,188.07308757511305L850.213110942442,187.38588372460083L850.8828048192177,187.67080723586196L850.213110942442,187.38588372460083M847.2870367501841,187.8318610819041L848.9033098114195,188.07308757511305L849.4303896549135,189.6841407881119L847.6684594939047,191.3625782680748L844.1977161644843,194.44297959192363L842.4887640215095,194.26770800576276M833.9241016460314,196.24260092247857L828.9181582932212,197.4390131148475L822.2249516584172,199.01750358366792L821.6208991622028,199.14870586913503M850.8828048192177,187.67080723586196L853.5569463574582,189.9204279971068L853.021393893935,191.63736537265936L855.6924103414401,192.49366990856174L856.2918938864788,194.58405891022278L855.4894180989412,196.04878173456075L854.2030158301783,196.61470472296003L854.1431688922262,198.22942216731167L853.106894561004,198.98525211569654L851.2668879491443,196.3306038996078L849.9300013827035,196.91810971736902L850.2299617701635,195.2476762401036L848.6974444545123,193.63125319581343L847.6684594939047,191.3625782680748M853.106894561004,198.98525211569654L852.4156251861508,200.92628699760053L850.0568687562238,202.37629490872894L849.0903374107634,199.46022616523874L848.1733141921267,199.41670135350114L847.5712189299436,198.8367852992651L846.0528672420523,198.01528345862096L844.1977161644843,194.44297959192363M856.2918938864788,194.58405891022278L858.1460388404057,195.31907031262108L860.1980111187952,195.13940417822073L863.4395061771015,192.64964537082585L860.5694982276326,188.65909261280444L863.0616251513393,190.2033179434767L864.457977432246,193.21168778708818L863.9370377431112,195.21393987365377L859.1078910785048,197.4598884190567L858.1744921493761,199.11052760824384L855.8722536222674,200.16579617202206L855.4894180989412,196.04878173456075M857.2661629683953,201.297021599765L859.5747476050146,202.69610304621676L855.9230382560924,203.97359254279252L855.9775513315459,202.02850643377155L857.2661629683953,201.297021599765M865.6597828558466,200.93261367821515L866.7465337240255,202.56731373229456L864.7593443358783,203.33189224359785L865.6597828558466,200.93261367821515" style="fill: inherit; stroke: inherit; stroke-width: inherit;" vector-effect="non-scaling-stroke"></path></svg>

<svg xmlns="http://www.w3.org/2000/svg" version="1.2" id="root" viewBox="815.3333446816546 176.343020725492 51.41318904237096 27.630571817300506"><g id="counties"><path id="county-25009" class="county feature" d="M847.33 176.343l1.405 2.768 2.724.606-.57 1.114-2.838 1.828.284 1.425-1.032.834-.61-.091-1.206-2.786-2.855-.242-.4-1.443.105-.155 2.068-1.791.186-1.079z" vector-effect="non-scaling-stroke" fill="inherit" stroke="inherit" stroke-width="inherit"><title>Essex County</title></path><path id="county-25003" class="county feature" d="M818.873 186.248l1.408 1.596.054 1.628.768 4.526.518 5.15-5.85 1.238-.125.029-.313-.645.202-8.233.113-4.591z" vector-effect="non-scaling-stroke" fill="inherit" stroke="inherit" stroke-width="inherit"><title>Berkshire County</title></path><path id="county-25011" class="county feature" d="M830.08 191.143l-1.16-1.195-4.3 1.372-.173-.876-2.402-.007-1.71-.965-.054-1.628-1.408-1.596 1.238-.27 6.295-1.337 2.345-.49.974.889.49 2.772z" vector-effect="non-scaling-stroke" fill="inherit" stroke="inherit" stroke-width="inherit"><title>Franklin County</title></path><path id="county-25017" class="county feature" d="M846.693 184.827l-.079 1.033-.307.126.237.352-.008.006-1.028 1.034.024.507-.25.476-1.976-.052.349 2.083-1.568 1.269-1.586-.327-.36-1.158 1.002-1.632-1.942.127.582-1.367-.355-2.45-1.791.714-.202-1.526-2.666.267-.898-1.278 8.043-1.831.318-.844.4 1.443 2.855.242z" vector-effect="non-scaling-stroke" fill="inherit" stroke="inherit" stroke-width="inherit"><title>Middlesex County</title></path><path id="county-25027" class="county feature" d="M833.469 183.12l.402-.09.898 1.279 2.666-.267.202 1.526 1.79-.715.356 2.45-.582 1.368 1.942-.127-1.002 1.632.36 1.158 1.586.327.402 2.607-3.975 1.219-4.138.667-.452.089-.605-2.4-1.82.036.284-1.261-.178-1.234-1.524-.241.135-3.331-.49-2.772-.975-.89z" vector-effect="non-scaling-stroke" fill="inherit" stroke="inherit" stroke-width="inherit"><title>Worcester County</title></path><path id="county-25015" class="county feature" d="M830.08 191.143l1.525.241.178 1.234-2.046 1.674-.328-.811-2.407.998-.85-.995-.323 1.832-3.224-.274-.06-1.793-1.442.749-.768-4.526 1.71.965 2.402.007.173.876 4.3-1.372z" vector-effect="non-scaling-stroke" fill="inherit" stroke="inherit" stroke-width="inherit"><title>Hampshire County</title></path><path id="county-25025" class="county feature" d="M846.536 186.344l.751 1.488-.94 1.31-1.065-.781.25-.476-.024-.507zm.008-.006l-.237-.352.237.352zm.759-1.42l-.689.942.079-1.033z" vector-effect="non-scaling-stroke" fill="inherit" stroke="inherit" stroke-width="inherit"><title>Suffolk County</title></path><path id="county-25021" class="county feature" d="M850.213 187.386l.67.285-.67-.285zm-4.931.975l1.066.781.939-1.31 1.616.241.527 1.611-1.762 1.679-3.47 3.08-1.71-.175-.4-2.607 1.567-1.269-.35-2.083zm.25-.476l-.024-.507.024.507z" vector-effect="non-scaling-stroke" fill="inherit" stroke="inherit" stroke-width="inherit"><title>Norfolk County</title></path><path id="county-25013" class="county feature" d="M831.783 192.618l-.283 1.26 1.819-.034.605 2.399-5.006 1.196-6.693 1.579-.604.13-.518-5.15 1.443-.75.059 1.794 3.224.274.323-1.832.85.995 2.407-.998.328.81z" vector-effect="non-scaling-stroke" fill="inherit" stroke="inherit" stroke-width="inherit"><title>Hampden County</title></path><path id="county-25023" class="county feature" d="M850.213 187.386l.67.285 2.674 2.25-.536 1.716 2.671.857.6 2.09-.803 1.465-1.286.566-.06 1.614-1.036.756-1.84-2.654-1.337.587.3-1.67-1.533-1.617-1.029-2.268 1.762-1.679-.527-1.61z" vector-effect="non-scaling-stroke" fill="inherit" stroke="inherit" stroke-width="inherit"><title>Plymouth County</title></path><path id="county-25005" class="county feature" d="M853.107 198.985l-.691 1.941-2.36 1.45-.966-2.916-.917-.043-.602-.58-1.518-.822-1.855-3.572 3.47-3.08 1.03 2.268 1.532 1.617-.3 1.67 1.337-.587z" vector-effect="non-scaling-stroke" fill="inherit" stroke="inherit" stroke-width="inherit"><title>Bristol County</title></path><path id="county-25001" class="county feature" d="M859.108 197.46l-.934 1.65-2.302 1.056-.383-4.117.803-1.465 1.854.735 2.052-.18 3.242-2.49-2.87-3.99 2.492 1.544 1.396 3.009-.521 2.002z" vector-effect="non-scaling-stroke" fill="inherit" stroke="inherit" stroke-width="inherit"><title>Barnstable County</title></path><path id="county-25007" class="county feature" d="M857.266 201.297l2.309 1.4-3.652 1.277.055-1.945z" vector-effect="non-scaling-stroke" fill="inherit" stroke="inherit" stroke-width="inherit"><title>Dukes County</title></path><path id="county-25019" class="county feature" d="M865.66 200.933l1.087 1.634-1.988.765z" vector-effect="non-scaling-stroke" fill="inherit" stroke="inherit" stroke-width="inherit"><title>Nantucket County</title></path></g><path id="counties-mesh" class="counties mesh" d="M818.873 186.248l1.408 1.596.054 1.628.768 4.526.518 5.15-5.85 1.238-.125.029-.313-.645.202-8.233.113-4.591 3.225-.698 1.238-.27 6.295-1.337 2.345-.49 4.718-1.032.402-.088 8.043-1.831.318-.844.105-.155 2.068-1.791.186-1.079 2.738-.988 1.406 2.768 2.724.606-.57 1.114-2.838 1.828.284 1.425-1.032.834-.61-.091-1.206-2.786-2.855-.242-.4-1.443m-13.481 3.795l.974.889.49 2.772-.134 3.33-1.162-1.194-4.299 1.372-.173-.876-2.402-.007-1.71-.965m26.358-4.645l-.079 1.033-.307.126.237.352-.008.006-1.028 1.034.024.507-.25.476-1.976-.052.349 2.083-1.568 1.269-1.586-.327-.36-1.158 1.002-1.632-1.942.127.582-1.367-.355-2.45-1.791.714-.202-1.526-2.666.267-.898-1.278m8.216 8.63l.402 2.607-3.975 1.219-4.138.667-.452.089-.605-2.4-1.82.036.284-1.261-.178-1.234-1.524-.241m1.702 1.475l-2.046 1.674-.328-.811-2.407.998-.85-.995-.323 1.832-3.224-.274-.06-1.793-1.442.749m25.433-7.654l.751 1.488-.94 1.31-1.065-.781m.25-.476l-.024-.507m.799-1.392l.237.352m.759-1.42l-.689.942m2.29 2.213l1.31-.687.669.285-.67-.285m-2.926.446l1.616.241.527 1.611-1.762 1.679-3.47 3.08-1.71-.175m-8.564 1.975l-5.006 1.196-6.693 1.579-.604.13m29.262-11.477l2.674 2.25-.536 1.716 2.671.857.6 2.09-.803 1.465-1.286.566-.06 1.614-1.036.756-1.84-2.654-1.337.587.3-1.67-1.533-1.617-1.029-2.268m5.439 7.622l-.691 1.941-2.36 1.45-.966-2.916-.917-.043-.602-.58-1.518-.822-1.855-3.572m12.094.141l1.854.735 2.052-.18 3.242-2.49-2.87-3.99 2.492 1.544 1.396 3.009-.521 2.002-4.83 2.246-.933 1.65-2.302 1.056-.383-4.117m1.777 5.248l2.309 1.4-3.652 1.277.055-1.945 1.288-.732m8.394-.364l1.087 1.634-1.988.765.9-2.4" vector-effect="non-scaling-stroke" fill="inherit" stroke="inherit" stroke-width="inherit"/></svg>
